priv/static/svgs/icons_new/controls-collapse.svg

<svg width="32" height="32" viewBox="0 0 32 32" fill="none" xmlns="http://www.w3.org/2000/svg">
<path d="M8.10188 18.0518L13.9469 18.0518L13.9469 23.8979M13.2162 18.7827L6.5 25.5001M25.4999 6.50024L18.786 13.2128M18.786 13.2128L18.7824 13.2164M18.786 13.2128V7.3703M18.786 13.2128V13.2164L24.631 13.2164" stroke="black" stroke-linecap="round" stroke-linejoin="round"/>
</svg>

<svg width="32" height="32" viewBox="0 0 32 32" fill="none" xmlns="http://www.w3.org/2000/svg">
  <symbol id="item" viewBox="0 0 32 32" stroke-width="1" fill="none">
    <path d="M8.102 18.052h5.845v5.846m-.73-5.115L6.5 25.5m19-19-6.714 6.713m0 0-.004.003m.004-.003V7.37m0 5.843v.003h5.845" stroke="currentColor" stroke-linecap="round" stroke-linejoin="round"/>
  </symbol>
</svg>
